; generated by Slic3r 1.37.2.1-prusa3d-win64 on 2019-12-01 at 13:24:29

; 

; external perimeters extrusion width = 0.45mm
; perimeters extrusion width = 0.45mm
; infill extrusion width = 0.45mm
; solid infill extrusion width = 0.45mm
; top infill extrusion width = 0.40mm
; support material extrusion width = 0.35mm
; first layer extrusion width = 0.42mm

M107 ; disable fan
M115 U3.4.0 ; tell printer latest fw version
M83  ; extruder relative mode
M104 S215 ; set extruder temp
M140 S60 ; set bed temp
M190 S60 ; wait for bed temp
M109 S215 ; wait for extruder temp
G28 W ; home all without mesh bed level
G80 ; mesh bed leveling
G1 Y-3.0 F1000.0 ; go outside print area
G92 E0.0
G1 X60.0 E9.0  F1000.0 ; intro line
G1 X100.0 E12.5  F1000.0 ; intro line
G92 E0.0
M221 S95
M900 K30
G21 ; set units to millimeters
G90 ; use absolute coordinates
M83 ; use relative distances for extrusion
;BEFORE_LAYER_CHANGE
G92 E0.0
;0.2


G1 E-0.80000 F2100.00000 ; retract
G1 Z0.600 F10800.000 ; lift Z
;AFTER_LAYER_CHANGE
;0.2
G1 X158.544 Y140.368 F10800.000 ; move to first skirt point
G1 Z0.200 F10800.000 ; restore layer Z
G1 E0.80000 F2100.00000 ; unretract
M204 S1000 ; adjust acceleration
G1 F1200
G1 X158.189 Y140.939 E0.02107 ; skirt
G1 X157.685 Y141.389 E0.02119 ; skirt
G1 X157.079 Y141.678 E0.02107 ; skirt
G1 X156.412 Y141.786 E0.02119 ; skirt
G1 X93.623 Y141.787 E1.96869 ; skirt
G1 X93.139 Y141.735 E0.01526 ; skirt
G1 X92.673 Y141.585 E0.01538 ; skirt
G1 X92.111 Y141.237 E0.02071 ; skirt
G1 X91.664 Y140.745 E0.02083 ; skirt
G1 X91.372 Y140.149 E0.02083 ; skirt
G1 X91.255 Y139.495 E0.02083 ; skirt
G1 X91.256 Y101.222 E1.20001 ; skirt
G1 X92.616 Y94.491 E0.21531 ; skirt
G1 X93.472 Y91.241 E0.10539 ; skirt
G1 X94.702 Y87.991 E0.10895 ; skirt
G1 X96.331 Y84.778 E0.11295 ; skirt
G1 X98.152 Y81.956 E0.10529 ; skirt
G1 X100.326 Y79.251 E0.10883 ; skirt
G1 X102.870 Y76.704 E0.11288 ; skirt
G1 X105.478 Y74.584 E0.10537 ; skirt
G1 X108.284 Y72.748 E0.10513 ; skirt
G1 X111.487 Y71.097 E0.11300 ; skirt
G1 X114.846 Y69.812 E0.11276 ; skirt
G1 X118.092 Y68.942 E0.10537 ; skirt
G1 X121.406 Y68.412 E0.10525 ; skirt
G1 X125.005 Y68.213 E0.11300 ; skirt
G1 X128.625 Y68.415 E0.11369 ; skirt
G1 X131.909 Y68.942 E0.10428 ; skirt
G1 X135.152 Y69.812 E0.10528 ; skirt
G1 X138.514 Y71.098 E0.11288 ; skirt
G1 X141.714 Y72.747 E0.11288 ; skirt
G1 X144.523 Y74.585 E0.10525 ; skirt
G1 X147.128 Y76.702 E0.10525 ; skirt
G1 X149.672 Y79.249 E0.11288 ; skirt
G1 X151.920 Y82.061 E0.11288 ; skirt
G1 X153.734 Y84.886 E0.10525 ; skirt
G1 X155.277 Y87.944 E0.10740 ; skirt
G1 X156.527 Y91.239 E0.11050 ; skirt
G1 X157.383 Y94.488 E0.10537 ; skirt
G1 X158.741 Y101.161 E0.21349 ; skirt
G1 X158.746 Y139.421 E1.19964 ; skirt
G1 X158.557 Y140.310 E0.02848 ; skirt
G1 F8640
G1 X158.189 Y140.939 E-0.16825 ; wipe and retract
G1 F8640
G1 X157.685 Y141.389 E-0.15602 ; wipe and retract
G1 F8640
G1 X157.079 Y141.678 E-0.15515 ; wipe and retract
G1 F8640
G1 X156.412 Y141.786 E-0.15602 ; wipe and retract
G1 F8640
G1 X155.873 Y141.786 E-0.12456 ; wipe and retract
G1 E-0.04000 F2100.00000 ; retract
G1 Z0.800 F10800.000 ; lift Z
G1 X153.964 Y136.057 F10800.000 ; move to first support material point
G1 Z0.200 F10800.000 ; restore layer Z
G1 E0.80000 F2100.00000 ; unretract
G1 F1200
G1 X153.964 Y128.035 E0.25153 ; support material
G1 X153.210 Y128.563 E0.02886 ; support material
G1 X153.210 Y135.322 E0.21193 ; support material
G1 X152.455 Y134.794 E0.02886 ; support material
G1 X152.455 Y129.090 E0.17883 ; support material
G1 X151.701 Y129.618 E0.02886 ; support material
G1 X151.701 Y134.266 E0.14572 ; support material
G1 X151.474 Y134.107 E0.00870 ; support material
G1 X151.353 Y134.069 E0.00399 ; support material
G1 X150.947 Y134.069 E0.01272 ; support material
G1 X150.947 Y129.646 E0.13867 ; support material
G1 F8640
G1 X150.947 Y132.937 E-0.76000 ; wipe and retract
G1 E-0.04000 F2100.00000 ; retract
G1 Z0.800 F10800.000 ; lift Z
G1 X139.635 Y135.667 F10800.000 ; move to first support material point
G1 Z0.200 F10800.000 ; restore layer Z
G1 E0.80000 F2100.00000 ; unretract
G1 F1200
G1 X139.635 Y128.387 E0.22826 ; support material
G1 X138.881 Y128.387 E0.02365 ; support material
G1 X138.881 Y135.497 E0.22294 ; support material
G1 X138.126 Y135.497 E0.02365 ; support material
G1 X138.126 Y128.217 E0.22826 ; support material
G1 F8640
G1 X138.126 Y131.509 E-0.76000 ; wipe and retract
G1 E-0.04000 F2100.00000 ; retract
G1 Z0.800 F10800.000 ; lift Z
G1 X111.731 Y135.667 F10800.000 ; move to first support material point
G1 Z0.200 F10800.000 ; restore layer Z
G1 E0.80000 F2100.00000 ; unretract
G1 F1200
G1 X111.731 Y128.387 E0.22826 ; support material
G1 X110.977 Y128.387 E0.02365 ; support material
G1 X110.977 Y135.667 E0.22826 ; support material
G1 F8640
G1 X110.977 Y132.376 E-0.76000 ; wipe and retract
G1 E-0.04000 F2100.00000 ; retract
G1 Z0.800 F10800.000 ; lift Z
G1 X98.910 Y134.238 F10800.000 ; move to first support material point
G1 Z0.200 F10800.000 ; restore layer Z
G1 E0.80000 F2100.00000 ; unretract
G1 F1200
G1 X98.910 Y129.816 E0.13867 ; support material
G1 X98.647 Y129.816 E0.00824 ; support material
G1 X98.526 Y129.777 E0.00399 ; support material
G1 X98.156 Y129.518 E0.01416 ; support material
G1 X98.156 Y134.366 E0.15199 ; support material
G1 X97.402 Y134.894 E0.02886 ; support material
G1 X97.402 Y128.991 E0.18509 ; support material
G1 X96.648 Y128.463 E0.02886 ; support material
G1 X96.648 Y135.422 E0.21820 ; support material
G1 X95.893 Y135.950 E0.02886 ; support material
G1 X95.893 Y127.728 E0.25780 ; support material
G1 F8640
G1 X95.893 Y131.019 E-0.76000 ; wipe and retract
G1 E-0.04000 F2100.00000 ; retract
G1 Z0.800 F10800.000 ; lift Z
G1 X109.300 Y127.386 F10800.000 ; move to first perimeter point
G1 Z0.200 F10800.000 ; restore layer Z
G1 E0.80000 F2100.00000 ; unretract
G1 F1200
G1 X113.252 Y127.386 E0.12392 ; perimeter
G1 X113.252 Y136.498 E0.28569 ; perimeter
G1 X109.300 Y136.498 E0.12392 ; perimeter
G1 X109.300 Y127.446 E0.28381 ; perimeter
G1 X109.677 Y127.763 F10800.000 ; move to first perimeter point
G1 F1200
G1 X112.875 Y127.763 E0.10027 ; perimeter
G1 X112.875 Y136.121 E0.26204 ; perimeter
G1 X109.677 Y136.121 E0.10027 ; perimeter
G1 X109.677 Y127.823 E0.26016 ; perimeter
G1 X109.628 Y127.366 F10800.000 ; move inwards before travel
G1 F8640
G1 X112.875 Y127.763 E-0.73859 ; wipe and retract
G1 F8640
G1 X112.875 Y127.856 E-0.02141 ; wipe and retract
G1 E-0.04000 F2100.00000 ; retract
G1 Z0.800 F10800.000 ; lift Z
G1 X121.201 Y125.926 F10800.000 ; move to first perimeter point
G1 Z0.200 F10800.000 ; restore layer Z
G1 E0.80000 F2100.00000 ; unretract
G1 F1200
G1 X121.173 Y125.277 E0.02037 ; perimeter
G1 X121.256 Y124.633 E0.02037 ; perimeter
G1 X121.446 Y124.012 E0.02037 ; perimeter
G1 X121.736 Y123.438 E0.02016 ; perimeter
G1 X122.125 Y122.910 E0.02056 ; perimeter
G1 X122.594 Y122.460 E0.02039 ; perimeter
G1 X123.132 Y122.096 E0.02037 ; perimeter
G1 X123.724 Y121.829 E0.02037 ; perimeter
G1 X124.353 Y121.665 E0.02037 ; perimeter
G1 X124.993 Y121.610 E0.02016 ; perimeter
G1 X125.647 Y121.665 E0.02056 ; perimeter
G1 X126.276 Y121.829 E0.02039 ; perimeter
G1 X126.868 Y122.096 E0.02037 ; perimeter
G1 X127.406 Y122.460 E0.02037 ; perimeter
G1 X127.875 Y122.909 E0.02037 ; perimeter
G1 X128.257 Y123.426 E0.02016 ; perimeter
G1 X128.554 Y124.011 E0.02056 ; perimeter
G1 X128.744 Y124.633 E0.02039 ; perimeter
G1 X128.827 Y125.277 E0.02037 ; perimeter
G1 X128.799 Y125.926 E0.02037 ; perimeter
G1 X128.662 Y126.561 E0.02037 ; perimeter
G1 X128.420 Y127.164 E0.02037 ; perimeter
G1 X128.079 Y127.717 E0.02037 ; perimeter
G1 X127.650 Y128.205 E0.02037 ; perimeter
G1 X127.145 Y128.613 E0.02037 ; perimeter
G1 X126.578 Y128.930 E0.02037 ; perimeter
G1 X125.965 Y129.146 E0.02037 ; perimeter
G1 X125.325 Y129.256 E0.02037 ; perimeter
G1 X124.675 Y129.256 E0.02037 ; perimeter
G1 X124.035 Y129.146 E0.02037 ; perimeter
G1 X123.422 Y128.930 E0.02037 ; perimeter
G1 X122.855 Y128.613 E0.02037 ; perimeter
G1 X122.350 Y128.205 E0.02037 ; perimeter
G1 X121.921 Y127.717 E0.02037 ; perimeter
G1 X121.580 Y127.164 E0.02037 ; perimeter
G1 X121.338 Y126.561 E0.02037 ; perimeter
G1 X121.214 Y125.985 E0.01849 ; perimeter
G1 X121.582 Y125.905 F10800.000 ; move to first perimeter point
G1 F1200
G1 X121.552 Y125.293 E0.01922 ; perimeter
G1 X121.626 Y124.713 E0.01836 ; perimeter
G1 X121.797 Y124.153 E0.01836 ; perimeter
G1 X122.058 Y123.636 E0.01816 ; perimeter
G1 X122.409 Y123.160 E0.01855 ; perimeter
G1 X122.832 Y122.754 E0.01836 ; perimeter
G1 X123.317 Y122.427 E0.01836 ; perimeter
G1 X123.850 Y122.185 E0.01836 ; perimeter
G1 X124.417 Y122.038 E0.01836 ; perimeter
G1 X124.994 Y121.989 E0.01816 ; perimeter
G1 X125.583 Y122.038 E0.01855 ; perimeter
G1 X126.150 Y122.185 E0.01836 ; perimeter
G1 X126.683 Y122.427 E0.01836 ; perimeter
G1 X127.168 Y122.754 E0.01836 ; perimeter
G1 X127.591 Y123.159 E0.01836 ; perimeter
G1 X127.935 Y123.625 E0.01816 ; perimeter
G1 X128.203 Y124.153 E0.01855 ; perimeter
G1 X128.374 Y124.713 E0.01836 ; perimeter
G1 X128.448 Y125.293 E0.01836 ; perimeter
G1 X128.424 Y125.878 E0.01836 ; perimeter
G1 X128.300 Y126.450 E0.01836 ; perimeter
G1 X128.082 Y126.994 E0.01836 ; perimeter
G1 X127.775 Y127.492 E0.01836 ; perimeter
G1 X127.388 Y127.932 E0.01836 ; perimeter
G1 X126.933 Y128.299 E0.01836 ; perimeter
G1 X126.422 Y128.585 E0.01836 ; perimeter
G1 X125.870 Y128.780 E0.01836 ; perimeter
G1 X125.293 Y128.879 E0.01836 ; perimeter
G1 X124.707 Y128.879 E0.01836 ; perimeter
G1 X124.130 Y128.780 E0.01836 ; perimeter
G1 X123.578 Y128.585 E0.01836 ; perimeter
G1 X123.067 Y128.299 E0.01836 ; perimeter
G1 X122.612 Y127.932 E0.01836 ; perimeter
G1 X122.225 Y127.492 E0.01836 ; perimeter
G1 X121.918 Y126.994 E0.01836 ; perimeter
G1 X121.700 Y126.450 E0.01836 ; perimeter
G1 X121.595 Y125.964 E0.01560 ; perimeter
G1 X121.212 Y125.753 F10800.000 ; move inwards before travel
G1 F8640
G1 X121.552 Y125.293 E-0.15522 ; wipe and retract
G1 F8640
G1 X121.626 Y124.713 E-0.13518 ; wipe and retract
G1 F8640
G1 X121.797 Y124.153 E-0.13517 ; wipe and retract
G1 F8640
G1 X122.058 Y123.636 E-0.13370 ; wipe and retract
G1 F8640
G1 X122.409 Y123.160 E-0.13658 ; wipe and retract
G1 F8640
G1 X122.609 Y122.967 E-0.06415 ; wipe and retract
G1 E-0.04000 F2100.00000 ; retract
G1 Z0.800 F10800.000 ; lift Z
G1 X136.748 Y127.386 F10800.000 ; move to first perimeter point
G1 Z0.200 F10800.000 ; restore layer Z
G1 E0.80000 F2100.00000 ; unretract
G1 F1200
G1 X140.700 Y127.386 E0.12392 ; perimeter
G1 X140.700 Y136.498 E0.28569 ; perimeter
G1 X136.748 Y136.498 E0.12392 ; perimeter
G1 X136.748 Y127.446 E0.28381 ; perimeter
G1 X137.125 Y127.763 F10800.000 ; move to first perimeter point
G1 F1200
G1 X140.323 Y127.763 E0.10028 ; perimeter
G1 X140.323 Y136.121 E0.26204 ; perimeter
G1 X137.125 Y136.121 E0.10028 ; perimeter
G1 X137.125 Y127.823 E0.26016 ; perimeter
G1 X137.076 Y127.366 F10800.000 ; move inwards before travel
G1 F8640
G1 X140.323 Y127.763 E-0.73859 ; wipe and retract
G1 F8640
G1 X140.323 Y127.856 E-0.02141 ; wipe and retract
G1 E-0.04000 F2100.00000 ; retract
G1 Z0.800 F10800.000 ; lift Z
G1 X147.552 Y104.800 F10800.000 ; move to first perimeter point
G1 Z0.200 F10800.000 ; restore layer Z
G1 E0.80000 F2100.00000 ; unretract
G1 F1200
G1 X146.985 Y104.483 E0.02037 ; perimeter
G1 X146.480 Y104.075 E0.02037 ; perimeter
G1 X146.051 Y103.587 E0.02037 ; perimeter
G1 X145.714 Y103.040 E0.02016 ; perimeter
G1 X145.468 Y102.432 E0.02056 ; perimeter
G1 X145.331 Y101.796 E0.02039 ; perimeter
G1 X145.303 Y101.147 E0.02037 ; perimeter
G1 X145.386 Y100.503 E0.02037 ; perimeter
G1 X145.574 Y99.888 E0.02016 ; perimeter
G1 X145.868 Y99.302 E0.02056 ; perimeter
G1 X146.255 Y98.779 E0.02039 ; perimeter
G1 X146.724 Y98.330 E0.02037 ; perimeter
G1 X147.262 Y97.966 E0.02037 ; perimeter
G1 X147.854 Y97.699 E0.02037 ; perimeter
G1 X148.483 Y97.535 E0.02037 ; perimeter
G1 X149.123 Y97.480 E0.02016 ; perimeter
G1 X149.777 Y97.535 E0.02056 ; perimeter
G1 X150.406 Y97.699 E0.02039 ; perimeter
G1 X150.998 Y97.966 E0.02037 ; perimeter
G1 X151.536 Y98.330 E0.02037 ; perimeter
G1 X152.005 Y98.779 E0.02037 ; perimeter
G1 X152.391 Y99.302 E0.02037 ; perimeter
G1 X152.684 Y99.882 E0.02037 ; perimeter
G1 X152.874 Y100.503 E0.02037 ; perimeter
G1 X152.957 Y101.147 E0.02037 ; perimeter
G1 X152.929 Y101.796 E0.02037 ; perimeter
G1 X152.792 Y102.431 E0.02037 ; perimeter
G1 X152.550 Y103.034 E0.02037 ; perimeter
G1 X152.209 Y103.587 E0.02037 ; perimeter
G1 X151.780 Y104.075 E0.02037 ; perimeter
G1 X151.275 Y104.483 E0.02037 ; perimeter
G1 X150.708 Y104.800 E0.02037 ; perimeter
G1 X150.095 Y105.016 E0.02037 ; perimeter
G1 X149.455 Y105.126 E0.02037 ; perimeter
G1 X148.805 Y105.126 E0.02037 ; perimeter
G1 X148.165 Y105.016 E0.02037 ; perimeter
G1 X147.609 Y104.820 E0.01849 ; perimeter
G1 X147.735 Y104.464 F10800.000 ; move to first perimeter point
G1 F1200
G1 X147.197 Y104.169 E0.01922 ; perimeter
G1 X146.742 Y103.802 E0.01836 ; perimeter
G1 X146.355 Y103.362 E0.01836 ; perimeter
G1 X146.051 Y102.869 E0.01816 ; perimeter
G1 X145.830 Y102.321 E0.01855 ; perimeter
G1 X145.706 Y101.748 E0.01836 ; perimeter
G1 X145.682 Y101.163 E0.01836 ; perimeter
G1 X145.756 Y100.583 E0.01836 ; perimeter
G1 X145.925 Y100.029 E0.01816 ; perimeter
G1 X146.191 Y99.500 E0.01855 ; perimeter
G1 X146.539 Y99.029 E0.01836 ; perimeter
G1 X146.962 Y98.624 E0.01836 ; perimeter
G1 X147.447 Y98.297 E0.01836 ; perimeter
G1 X147.980 Y98.055 E0.01836 ; perimeter
G1 X148.547 Y97.908 E0.01836 ; perimeter
G1 X149.124 Y97.859 E0.01816 ; perimeter
G1 X149.713 Y97.908 E0.01855 ; perimeter
G1 X150.280 Y98.055 E0.01836 ; perimeter
G1 X150.813 Y98.297 E0.01836 ; perimeter
G1 X151.298 Y98.624 E0.01836 ; perimeter
G1 X151.721 Y99.029 E0.01836 ; perimeter
G1 X152.069 Y99.500 E0.01836 ; perimeter
G1 X152.333 Y100.023 E0.01836 ; perimeter
G1 X152.504 Y100.583 E0.01836 ; perimeter
G1 X152.578 Y101.163 E0.01836 ; perimeter
G1 X152.554 Y101.748 E0.01836 ; perimeter
G1 X152.430 Y102.320 E0.01836 ; perimeter
G1 X152.212 Y102.864 E0.01836 ; perimeter
G1 X151.905 Y103.362 E0.01836 ; perimeter
G1 X151.518 Y103.802 E0.01836 ; perimeter
G1 X151.063 Y104.169 E0.01836 ; perimeter
G1 X150.552 Y104.455 E0.01836 ; perimeter
G1 X150.000 Y104.650 E0.01836 ; perimeter
G1 X149.423 Y104.749 E0.01836 ; perimeter
G1 X148.837 Y104.749 E0.01836 ; perimeter
G1 X148.260 Y104.650 E0.01836 ; perimeter
G1 X147.791 Y104.484 E0.01560 ; perimeter
G1 X147.411 Y104.699 F10800.000 ; move inwards before travel
G1 F8640
G1 X147.197 Y104.169 E-0.15522 ; wipe and retract
G1 F8640
G1 X146.742 Y103.802 E-0.13518 ; wipe and retract
G1 F8640
G1 X146.355 Y103.362 E-0.13518 ; wipe and retract
G1 F8640
G1 X146.051 Y102.869 E-0.13370 ; wipe and retract
G1 F8640
G1 X145.830 Y102.321 E-0.13658 ; wipe and retract
G1 F8640
G1 X145.771 Y102.049 E-0.06415 ; wipe and retract
G1 E-0.04000 F2100.00000 ; retract
G1 Z0.800 F10800.000 ; lift Z
G1 X132.670 Y102.292 F10800.000 ; move to first perimeter point
G1 Z0.200 F10800.000 ; restore layer Z
G1 E0.80000 F2100.00000 ; unretract
G1 F1200
G1 X132.394 Y103.574 E0.04112 ; perimeter
G1 X131.905 Y104.791 E0.04112 ; perimeter
G1 X131.217 Y105.908 E0.04112 ; perimeter
G1 X130.351 Y106.893 E0.04112 ; perimeter
G1 X129.330 Y107.717 E0.04112 ; perimeter
G1 X128.185 Y108.356 E0.04112 ; perimeter
G1 X126.949 Y108.793 E0.04112 ; perimeter
G1 X125.656 Y109.015 E0.04112 ; perimeter
G1 X124.344 Y109.015 E0.04112 ; perimeter
G1 X123.051 Y108.793 E0.04112 ; perimeter
G1 X121.815 Y108.356 E0.04112 ; perimeter
G1 X120.670 Y107.717 E0.04112 ; perimeter
G1 X119.660 Y106.902 E0.04068 ; perimeter
